X: 18780
T: If There Weren't Any Kids In The World
R: barndance
M: 4/4
K: Dmajor
A2|:"D".dc df ab af|"D" .d2.d2 "A".c2cd|"A"efge cABc|"D"dfec "A"B2 (3ABc|
"D"dc .df abaf|"D" .d2.d2 "A".c=c^cd|"A"ef (3gfe (3dcB Ag|"D"fed2f2 "A".dA:|
|:"G"g2.B2 .B2.g2|"D"f2 A2 A2ed|"A"cBA^G ABcA|"Em"e2dc "D".d2(3def|
"G"g2.BA .B2.g2|"D"f2 AG A2ed|"A"cBA^G ABcd|"Em7"{dJ}e2.dc "D" {e}d2(3def:|

